X: 2
T: Shandon Bells
R: jig
M: 6/8
L: 1/8
K: Dmaj
B|A>FD DFA|d>ed cBA|B>GE EFA|B2A Bcd|A>FD DFA|d>ed cBA|Bcd ecA|1 d3 dcB:|2 d3 d2|g|f2(d d)ed|faa afd|c>AA e>AA|cBc efg|f2(d d)ed|faa afd|Bcd ecA|d3 d2||


Tune 1200	Setting 1200

